X:10
T:Martin Wynne's #2
C:Martin Wynne (1914-98)
R:reel
D:Bothy Band: 1975
D:Tommy Healy & Johnny Duffy: Memories of Sligo
Z:id:hn-reel-328
M:C|
K:Bm
F2AF E2FE|DB,~B,2 DB,A,2|B,E~E2 FEDE|FABc dcBA|
FBAF EGFE|DB,~B,2 DB,A,2|B,E~E2 FEDE|FABA ~B3A:|
|:FBAF A2FA|(3Bcd eg fdde|f2af egfe|dBAF ~B3A|
FBAF A2FA|(3Bcd eg fdde|f2af egfe|dBAF ~B3A:|
